src/assets/home/search/logo2.svg

<svg width="131" height="43" viewBox="0 0 131 43" fill="none" xmlns="http://www.w3.org/2000/svg">
<path d="M61.144 15.512C62.152 15.512 63.048 15.736 63.832 16.184C64.616 16.616 65.224 17.264 65.656 18.128C66.104 18.976 66.328 20 66.328 21.2V29H62.968V21.656C62.968 20.6 62.704 19.792 62.176 19.232C61.648 18.656 60.928 18.368 60.016 18.368C59.088 18.368 58.352 18.656 57.808 19.232C57.28 19.792 57.016 20.6 57.016 21.656V29H53.656V11.24H57.016V17.36C57.448 16.784 58.024 16.336 58.744 16.016C59.464 15.68 60.264 15.512 61.144 15.512ZM81.8832 22.064C81.8832 22.544 81.8512 22.976 81.7872 23.36H72.0672C72.1472 24.32 72.4832 25.072 73.0752 25.616C73.6672 26.16 74.3952 26.432 75.2592 26.432C76.5072 26.432 77.3952 25.896 77.9232 24.824H81.5472C81.1632 26.104 80.4272 27.16 79.3392 27.992C78.2512 28.808 76.9152 29.216 75.3312 29.216C74.0512 29.216 72.8992 28.936 71.8752 28.376C70.8672 27.8 70.0752 26.992 69.4992 25.952C68.9392 24.912 68.6592 23.712 68.6592 22.352C68.6592 20.976 68.9392 19.768 69.4992 18.728C70.0592 17.688 70.8432 16.888 71.8512 16.328C72.8592 15.768 74.0192 15.488 75.3312 15.488C76.5952 15.488 77.7232 15.76 78.7152 16.304C79.7232 16.848 80.4992 17.624 81.0432 18.632C81.6032 19.624 81.8832 20.768 81.8832 22.064ZM78.4032 21.104C78.3872 20.24 78.0752 19.552 77.4672 19.04C76.8592 18.512 76.1152 18.248 75.2352 18.248C74.4032 18.248 73.6992 18.504 73.1232 19.016C72.5632 19.512 72.2192 20.208 72.0912 21.104H78.4032ZM83.4717 22.304C83.4717 20.96 83.7357 19.768 84.2637 18.728C84.8077 17.688 85.5357 16.888 86.4477 16.328C87.3757 15.768 88.4077 15.488 89.5437 15.488C90.5357 15.488 91.3997 15.688 92.1357 16.088C92.8877 16.488 93.4877 16.992 93.9357 17.6V15.704H97.3197V29H93.9357V27.056C93.5037 27.68 92.9037 28.2 92.1357 28.616C91.3837 29.016 90.5117 29.216 89.5197 29.216C88.3997 29.216 87.3757 28.928 86.4477 28.352C85.5357 27.776 84.8077 26.968 84.2637 25.928C83.7357 24.872 83.4717 23.664 83.4717 22.304ZM93.9357 22.352C93.9357 21.536 93.7757 20.84 93.4557 20.264C93.1357 19.672 92.7037 19.224 92.1597 18.92C91.6157 18.6 91.0317 18.44 90.4077 18.44C89.7837 18.44 89.2077 18.592 88.6797 18.896C88.1517 19.2 87.7197 19.648 87.3837 20.24C87.0637 20.816 86.9037 21.504 86.9037 22.304C86.9037 23.104 87.0637 23.808 87.3837 24.416C87.7197 25.008 88.1517 25.464 88.6797 25.784C89.2237 26.104 89.7997 26.264 90.4077 26.264C91.0317 26.264 91.6157 26.112 92.1597 25.808C92.7037 25.488 93.1357 25.04 93.4557 24.464C93.7757 23.872 93.9357 23.168 93.9357 22.352ZM103.961 11.24V29H100.601V11.24H103.961ZM111.193 18.464V24.896C111.193 25.344 111.297 25.672 111.505 25.88C111.729 26.072 112.097 26.168 112.609 26.168H114.169V29H112.057C109.225 29 107.809 27.624 107.809 24.872V18.464H106.225V15.704H107.809V12.416H111.193V15.704H114.169V18.464H111.193ZM124.074 15.512C125.082 15.512 125.978 15.736 126.762 16.184C127.546 16.616 128.154 17.264 128.586 18.128C129.034 18.976 129.258 20 129.258 21.2V29H125.898V21.656C125.898 20.6 125.634 19.792 125.106 19.232C124.578 18.656 123.858 18.368 122.946 18.368C122.018 18.368 121.282 18.656 120.738 19.232C120.21 19.792 119.946 20.6 119.946 21.656V29H116.586V11.24H119.946V17.36C120.378 16.784 120.954 16.336 121.674 16.016C122.394 15.68 123.194 15.512 124.074 15.512Z" fill="#0D0A00"/>
<rect width="41" height="43" rx="11" fill="#CB9A39"/>
<path d="M18.598 16.13V19.98H23.768V22.422H18.598V26.492H24.428V29H15.518V13.622H24.428V16.13H18.598Z" fill="white"/>
</svg>

<svg width="131" height="43" fill="none" xmlns="http://www.w3.org/2000/svg"><path d="M61.144 15.512c1.008 0 1.904.224 2.688.672.784.432 1.392 1.08 1.824 1.944.448.848.672 1.872.672 3.072V29h-3.36v-7.344c0-1.056-.264-1.864-.792-2.424-.528-.576-1.248-.864-2.16-.864-.928 0-1.664.288-2.208.864-.528.56-.792 1.368-.792 2.424V29h-3.36V11.24h3.36v6.12c.432-.576 1.008-1.024 1.728-1.344.72-.336 1.52-.504 2.4-.504Zm20.74 6.552c0 .48-.033.912-.097 1.296h-9.72c.08.96.416 1.712 1.008 2.256.592.544 1.32.816 2.184.816 1.248 0 2.136-.536 2.664-1.608h3.624c-.384 1.28-1.12 2.336-2.208 3.168-1.088.816-2.424 1.224-4.008 1.224-1.28 0-2.432-.28-3.456-.84a6.182 6.182 0 0 1-2.376-2.424c-.56-1.04-.84-2.24-.84-3.6 0-1.376.28-2.584.84-3.624a5.861 5.861 0 0 1 2.352-2.4c1.008-.56 2.168-.84 3.48-.84 1.264 0 2.392.272 3.384.816a5.63 5.63 0 0 1 2.328 2.328c.56.992.84 2.136.84 3.432Zm-3.48-.96c-.017-.864-.329-1.552-.937-2.064-.608-.528-1.352-.792-2.232-.792-.832 0-1.536.256-2.112.768-.56.496-.904 1.192-1.032 2.088h6.312Zm5.068 1.2c0-1.344.264-2.536.792-3.576.544-1.04 1.272-1.84 2.184-2.4.928-.56 1.96-.84 3.096-.84.992 0 1.856.2 2.592.6.752.4 1.352.904 1.8 1.512v-1.896h3.384V29h-3.384v-1.944c-.432.624-1.032 1.144-1.8 1.56-.752.4-1.624.6-2.616.6a5.71 5.71 0 0 1-3.072-.864c-.912-.576-1.64-1.384-2.184-2.424-.528-1.056-.792-2.264-.792-3.624Zm10.464.048c0-.816-.16-1.512-.48-2.088-.32-.592-.752-1.04-1.296-1.344a3.397 3.397 0 0 0-1.752-.48c-.624 0-1.2.152-1.728.456-.528.304-.96.752-1.296 1.344-.32.576-.48 1.264-.48 2.064s.16 1.504.48 2.112c.336.592.768 1.048 1.296 1.368.544.32 1.12.48 1.728.48.624 0 1.208-.152 1.752-.456.544-.32.976-.768 1.296-1.344.32-.592.48-1.296.48-2.112ZM103.96 11.24V29h-3.36V11.24h3.36Zm7.232 7.224v6.432c0 .448.104.776.312.984.224.192.592.288 1.104.288h1.56V29h-2.112c-2.832 0-4.248-1.376-4.248-4.128v-6.408h-1.584v-2.76h1.584v-3.288h3.384v3.288h2.976v2.76h-2.976Zm12.881-2.952c1.008 0 1.904.224 2.688.672.784.432 1.392 1.08 1.824 1.944.448.848.672 1.872.672 3.072V29h-3.36v-7.344c0-1.056-.264-1.864-.792-2.424-.528-.576-1.248-.864-2.16-.864-.928 0-1.664.288-2.208.864-.528.56-.792 1.368-.792 2.424V29h-3.36V11.24h3.36v6.12c.432-.576 1.008-1.024 1.728-1.344.72-.336 1.52-.504 2.4-.504Z" fill="#0D0A00"/><rect width="41" height="43" rx="11" fill="#CB9A39"/><path d="M18.598 16.13v3.85h5.17v2.442h-5.17v4.07h5.83V29h-8.91V13.622h8.91v2.508h-5.83Z" fill="#fff"/></svg>
